usr/share/icons/bigicons-papient-dark/16x16/panel/pamac-tray-no-update.svg

<?xml version="1.0" encoding="UTF-8" standalone="no"?>
<svg
   width="16"
   height="16"
   version="1.1"
   id="svg1"
   sodipodi:docname="pamac-tray-no-update.svg"
   inkscape:version="1.4 (e7c3feb100, 2024-10-09)"
   xmlns:inkscape="http://www.inkscape.org/namespaces/inkscape"
   xmlns:sodipodi="http://sodipodi.sourceforge.net/DTD/sodipodi-0.dtd"
   xmlns="http://www.w3.org/2000/svg"
   xmlns:svg="http://www.w3.org/2000/svg">
  <sodipodi:namedview
     id="namedview1"
     pagecolor="#ffffff"
     bordercolor="#000000"
     borderopacity="0.25"
     inkscape:showpageshadow="2"
     inkscape:pageopacity="0.0"
     inkscape:pagecheckerboard="0"
     inkscape:deskcolor="#d1d1d1"
     inkscape:zoom="30.5"
     inkscape:cx="7.9836066"
     inkscape:cy="8"
     inkscape:window-width="1366"
     inkscape:window-height="696"
     inkscape:window-x="0"
     inkscape:window-y="0"
     inkscape:window-maximized="1"
     inkscape:current-layer="svg1" />
  <defs
     id="defs1">
    <style
       id="current-color-scheme"
       type="text/css">
   .ColorScheme-Text { color:#dfdfdf; } .ColorScheme-Highlight { color:#4285f4; } .ColorScheme-NeutralText { color:#ff9800; } .ColorScheme-PositiveText { color:#4caf50; } .ColorScheme-NegativeText { color:#f44336; }
  </style>
  </defs>
  <path
     style="fill:currentColor;fill-rule:evenodd"
     class="ColorScheme-Text"
     d="M 7.9999998,0 C 5.8957772,1.9698687 2.3522445,3.4192359 1.1428765,3.7143208 1.1428765,9.047334 3.7142977,15.11086 7.9999998,16 12.285702,15.11086 14.857124,9.047334 14.857124,3.7143208 13.646841,3.4192359 10.104109,1.9698687 7.9999998,0 Z M 11.843417,5.7723721 12.651416,6.5803698 8.6116552,10.620587 7.8035432,11.428584 6.9955455,10.620587 4.5714381,8.1964794 5.3794358,7.3883675 7.8035432,9.812475 Z"
     id="path1" />
</svg>

<svg xmlns="http://www.w3.org/2000/svg" width="16" height="16"><path d="M8 0C5.896 1.97 2.352 3.42 1.143 3.714 1.143 9.047 3.714 15.111 8 16c4.286-.89 6.857-6.953 6.857-12.286C13.647 3.42 10.104 1.97 8 0m3.843 5.772.808.808-4.04 4.04-.807.809-.808-.808L4.57 8.196l.808-.808 2.425 2.424Z" style="color:#b0b0b0;fill:currentColor;fill-rule:evenodd"/></svg>
